icons/metamask-alt.svg

<svg viewBox="0 0 404 420.2" xmlns="http://www.w3.org/2000/svg"><path d="m382.9 290.9-24.4 82.5-47.9-13.1z" fill="#e4761b" stroke="#e4761b"/><path d="m310.6 360.3 46.2-63.3 26.1-6.1z" fill="#e4761b" stroke="#e4761b"/><path d="m347 228.7 35.9 62.2-26.1 6.1zm0 0 23.1-16 12.8 78.2z" fill="#f6851b" stroke="#f6851b"/><path d="m317.6 181.7 66.4-27.2-3.3 14.9zm61 5.6-61-5.6 63.1-12.3z" fill="#763d16" stroke="#763d16"/><path d="m378.6 187.3-8.5 25.4-52.5-31zm13.3-26.5-11.2 8.6 3.3-14.9zm-13.3 26.5 2.1-17.9 8.9 7.4z" fill="#763d16" stroke="#763d16"/><path d="m259.1 340.2 16.6 5.3 34.9 14.8z" fill="#e2761b" stroke="#e2761b"/><path d="m370.1 212.7 8.5-25.4 7.3 5.6zm0 0-68.9-22.7 16.4-8.3z" fill="#763d16" stroke="#763d16"/><path d="m334 103.8-16.4 77.9-16.4 8.3z" fill="#763d16" stroke="#763d16"/><path d="m384 154.5-66.4 27.2 16.4-77.9z" fill="#763d16" stroke="#763d16"/><path d="m334 103.8 69.3-8-19.3 58.7z" fill="#763d16" stroke="#763d16"/><path d="m370.1 212.7-23.1 16-45.8-38.7z" fill="#f6851b" stroke="#f6851b"/><path d="m400.3 39.7 3 56.1-69.3 8z" fill="#763d16" stroke="#763d16"/><path d="m400.3 39.7-138.5 100.7-1.8-68.3z" fill="#e2761b" stroke="#e2761b"/><path d="m157 63.9 103 8.2 1.8 68.3z" fill="#f6851b" stroke="#f6851b"/><path d="m301.2 190-39.4-49.6 72.2-36.6z" fill="#763d16" stroke="#763d16"/><path d="m301.2 190 45.8 38.7-64.3 7.1z" fill="#e4761b" stroke="#e4761b"/><path d="m282.7 235.8-20.9-95.4 39.4 49.6z" fill="#e4761b" stroke="#e4761b"/><path d="m334 103.8-72.2 36.6 138.5-100.7z" fill="#763d16" stroke="#763d16"/><path d="m157.9 358.7 32.7 34.1-44.5-40.5z" fill="#c0ad9e" stroke="#c0ad9e"/><path d="m310.6 360.3 15.5-58.9 30.7-4.4z" fill="#cd6116" stroke="#cd6116"/><path d="m25.3 194.6 56.6-59.5-49.3 52.4z" fill="#e2761b" stroke="#e2761b"/><path d="m356.8 297-30.7 4.4 20.9-72.7zm-95-156.6-55.1-1.8-49.7-74.7z" fill="#f6851b" stroke="#f6851b"/><path d="m347 228.7-20.9 72.7-1.7-35.5z" fill="#e4751f" stroke="#e4751f"/><path d="m282.7 235.8 64.3-7.1-22.6 37.2z" fill="#cd6116" stroke="#cd6116"/><path d="m206.7 138.6 55.1 1.8 20.9 95.4z" fill="#f6851b" stroke="#f6851b"/><path d="m206.7 138.6-148.7-137.6 99 62.9zm-49.8 241-129.2 40-25.8-98.5z" fill="#e4761b" stroke="#e4761b"/><path d="m44.5 219.2 48.8-38.3 40.9 9.5z" fill="#763d16" stroke="#763d16"/><path d="m134.2 190.4-40.9-9.5 21.9-90.4z" fill="#763d16" stroke="#763d16"/><path d="m32.6 187.5 60.7-6.6-48.8 38.3z" fill="#763d16" stroke="#763d16"/><path d="m324.4 265.9-25.2-12.7-16.5-17.4z" fill="#cd6116" stroke="#cd6116"/><path d="m32.6 187.5-4.3-22.7 65 16.1z" fill="#763d16" stroke="#763d16"/><path d="m294 281.8 5.2-28.6 25.2 12.7z" fill="#233447" stroke="#233447"/><path d="m326.1 301.4-32.1-19.6 30.4-15.9z" fill="#f6851b" stroke="#f6851b"/><path d="m93.3 180.9-65-16.1-5.3-19.1zm21.9-90.4-21.9 90.4-70.3-35.2zm0 0 91.5 48.1-72.5 51.8z" fill="#763d16" stroke="#763d16"/><path d="m134.2 190.4 72.5-51.8 32.3 98.7zm104.8 46.9-100.2-2.1-4.6-44.8z" fill="#e4761b" stroke="#e4761b"/><path d="m44.5 219.2 89.7-28.8 4.6 44.8zm238.2 16.6-43.7 1.5-32.3-98.7z" fill="#f6851b" stroke="#f6851b"/><path d="m299.2 253.2-5.2 28.6-11.3-46z" fill="#cd6116" stroke="#cd6116"/><path d="m58 1 148.7 137.6-91.5-48.1z" fill="#763d16" stroke="#763d16"/><path d="m1.9 321.1 125.4-5.2 29.6 63.7z" fill="#e4761b" stroke="#e4761b"/><path d="m156.9 379.6-29.6-63.7 61.6-3z" fill="#cd6116" stroke="#cd6116"/><path d="m294 281.8 32.1 19.6 17.7 41.7zm-155.2-46.6-136.9 85.9 42.6-101.9zm-11.5 80.7-125.4 5.2 136.9-85.9zm155.4-80.1 8.2 29.8-39.6 2.3zm-31.4 32.1-12.3-30.6 43.7-1.5z" fill="#f6851b" stroke="#f6851b"/><path d="m190.6 392.8-33.7-13.2 117.2 19.7z" fill="#c0ad9e" stroke="#c0ad9e"/><path d="m44.5 219.2-19.2-24.6 7.3-7.1z" fill="#763d16" stroke="#763d16"/><path d="m287.4 384.7-13.3 14.6-117.2-19.7z" fill="#d7c1b3" stroke="#d7c1b3"/><path d="m293.7 348.9-136.8 30.7 32-66.7z" fill="#e4761b" stroke="#e4761b"/><path d="m156.9 379.6 136.8-30.7-6.3 35.8z" fill="#d7c1b3" stroke="#d7c1b3"/><path d="m23 145.7-4.5-76.9 96.7 21.7zm9.6 41.8-13.3-13.5 9-9.2z" fill="#763d16" stroke="#763d16"/><path d="m216.6 257.1 22.4-19.8-3.2 48.4z" fill="#cd6116" stroke="#cd6116"/><path d="m239 237.3-22.4 19.8-32.6 16.9z" fill="#cd6116" stroke="#cd6116"/><path d="m343.8 343.1-6.1-4.5-43.7-56.8z" fill="#f6851b" stroke="#f6851b"/><path d="m184 274-45.2-38.8 100.2 2.1z" fill="#cd6116" stroke="#cd6116"/><path d="m235.8 285.7 3.2-48.4 12.3 30.6z" fill="#e4751f" stroke="#e4751f"/><path d="m14.9 153.3 8.1-7.6 5.3 19.1z" fill="#763d16" stroke="#763d16"/><path d="m235.8 285.7-51.8-11.7 32.6-16.9z" fill="#233447" stroke="#233447"/><path d="m115.2 90.5-96.7-21.7 39.5-67.8z" fill="#763d16" stroke="#763d16"/><path d="m274.1 399.3 5.5 15-89-21.5z" fill="#c0ad9e" stroke="#c0ad9e"/><path d="m188.9 312.9-4.9-38.9 51.8 11.7z" fill="#f6851b" stroke="#f6851b"/><path d="m138.8 235.2 45.2 38.8 4.9 38.9z" fill="#e4751f" stroke="#e4751f"/><path d="m251.3 267.9 39.6-2.3 46.8 73zm-112.5-32.7 50.1 77.7-61.6 3z" fill="#f6851b" stroke="#f6851b"/><path d="m251.3 267.9 49.2 74.9-64.7-57.1z" fill="#e4751f" stroke="#e4751f"/><path d="m235.8 285.7 64.7 57.1-6.8 6.1z" fill="#f6851b" stroke="#f6851b"/><path d="m293.7 348.9-104.8-36 46.9-27.2zm44-10.3-37.2 4.2-49.2-74.9z" fill="#f6851b" stroke="#f6851b"/><path d="m347.5 373.8-16 32.1-51.9 8.4zm-67.9 40.5-5.5-15 13.3-14.6z" fill="#c0ad9e" stroke="#c0ad9e"/><path d="m287.4 384.7 9.8-3.9-17.6 33.5zm-7.8 29.6 17.6-33.5 50.3-7z" fill="#c0ad9e" stroke="#c0ad9e"/><g fill="#161616" stroke="#161616"><path d="m337.7 338.6 12.3 7.5-37.4 4.5z"/><path d="m312.6 350.6-12.1-7.8 37.2-4.2zm-4.3 5.9 45.5-5.5-6.3 22.8z"/><path d="m347.5 373.8-50.3 7 11.1-24.3zm-50.3 7-9.8 3.9 6.3-35.8zm-3.5-31.9 6.8-6.1 12.1 7.8zm56.3-2.8 3.8 4.9-45.5 5.5z"/><path d="m308.3 356.5 4.3-5.9 37.4-4.5zm-14.6-7.6 14.6 7.6-11.1 24.3z"/><path d="m312.6 350.6-4.3 5.9-14.6-7.6z"/></g></svg>

<svg xmlns="http://www.w3.org/2000/svg" viewBox="0 0 404 420.2">
  <path fill="#e4761b" stroke="#e4761b" d="m382.9 290.9-24.4 82.5-47.9-13.1z"/>
  <path fill="#e4761b" stroke="#e4761b" d="m310.6 360.3 46.2-63.3 26.1-6.1z"/>
  <path fill="#f6851b" stroke="#f6851b" d="m347 228.7 35.9 62.2-26.1 6.1zm0 0 23.1-16 12.8 78.2z"/>
  <path fill="#763d16" stroke="#763d16" d="m317.6 181.7 66.4-27.2-3.3 14.9zm61 5.6-61-5.6 63.1-12.3z"/>
  <path fill="#763d16" stroke="#763d16" d="m378.6 187.3-8.5 25.4-52.5-31zm13.3-26.5-11.2 8.6 3.3-14.9zm-13.3 26.5 2.1-17.9 8.9 7.4z"/>
  <path fill="#e2761b" stroke="#e2761b" d="m259.1 340.2 16.6 5.3 34.9 14.8z"/>
  <path fill="#763d16" stroke="#763d16" d="m370.1 212.7 8.5-25.4 7.3 5.6zm0 0L301.2 190l16.4-8.3z"/>
  <path fill="#763d16" stroke="#763d16" d="m334 103.8-16.4 77.9-16.4 8.3z"/>
  <path fill="#763d16" stroke="#763d16" d="m384 154.5-66.4 27.2 16.4-77.9z"/>
  <path fill="#763d16" stroke="#763d16" d="m334 103.8 69.3-8-19.3 58.7z"/>
  <path fill="#f6851b" stroke="#f6851b" d="m370.1 212.7-23.1 16-45.8-38.7z"/>
  <path fill="#763d16" stroke="#763d16" d="m400.3 39.7 3 56.1-69.3 8z"/>
  <path fill="#e2761b" stroke="#e2761b" d="M400.3 39.7 261.8 140.4 260 72.1z"/>
  <path fill="#f6851b" stroke="#f6851b" d="m157 63.9 103 8.2 1.8 68.3z"/>
  <path fill="#763d16" stroke="#763d16" d="m301.2 190-39.4-49.6 72.2-36.6z"/>
  <path fill="#e4761b" stroke="#e4761b" d="m301.2 190 45.8 38.7-64.3 7.1z"/>
  <path fill="#e4761b" stroke="#e4761b" d="m282.7 235.8-20.9-95.4 39.4 49.6z"/>
  <path fill="#763d16" stroke="#763d16" d="m334 103.8-72.2 36.6L400.3 39.7z"/>
  <path fill="#c0ad9e" stroke="#c0ad9e" d="m157.9 358.7 32.7 34.1-44.5-40.5z"/>
  <path fill="#cd6116" stroke="#cd6116" d="m310.6 360.3 15.5-58.9 30.7-4.4z"/>
  <path fill="#e2761b" stroke="#e2761b" d="m25.3 194.6 56.6-59.5-49.3 52.4z"/>
  <path fill="#f6851b" stroke="#f6851b" d="m356.8 297-30.7 4.4 20.9-72.7zm-95-156.6-55.1-1.8L157 63.9z"/>
  <path fill="#e4751f" stroke="#e4751f" d="m347 228.7-20.9 72.7-1.7-35.5z"/>
  <path fill="#cd6116" stroke="#cd6116" d="m282.7 235.8 64.3-7.1-22.6 37.2z"/>
  <path fill="#f6851b" stroke="#f6851b" d="m206.7 138.6 55.1 1.8 20.9 95.4z"/>
  <path fill="#e4761b" stroke="#e4761b" d="M206.7 138.6 58 1l99 62.9zm-49.8 241-129.2 40-25.8-98.5z"/>
  <path fill="#763d16" stroke="#763d16" d="m44.5 219.2 48.8-38.3 40.9 9.5z"/>
  <path fill="#763d16" stroke="#763d16" d="m134.2 190.4-40.9-9.5 21.9-90.4z"/>
  <path fill="#763d16" stroke="#763d16" d="m32.6 187.5 60.7-6.6-48.8 38.3z"/>
  <path fill="#cd6116" stroke="#cd6116" d="m324.4 265.9-25.2-12.7-16.5-17.4z"/>
  <path fill="#763d16" stroke="#763d16" d="m32.6 187.5-4.3-22.7 65 16.1z"/>
  <path fill="#233447" stroke="#233447" d="m294 281.8 5.2-28.6 25.2 12.7z"/>
  <path fill="#f6851b" stroke="#f6851b" d="M326.1 301.4 294 281.8l30.4-15.9z"/>
  <path fill="#763d16" stroke="#763d16" d="m93.3 180.9-65-16.1-5.3-19.1zm21.9-90.4-21.9 90.4L23 145.7zm0 0 91.5 48.1-72.5 51.8z"/>
  <path fill="#e4761b" stroke="#e4761b" d="m134.2 190.4 72.5-51.8 32.3 98.7zM239 237.3l-100.2-2.1-4.6-44.8z"/>
  <path fill="#f6851b" stroke="#f6851b" d="m44.5 219.2 89.7-28.8 4.6 44.8zm238.2 16.6-43.7 1.5-32.3-98.7z"/>
  <path fill="#cd6116" stroke="#cd6116" d="m299.2 253.2-5.2 28.6-11.3-46z"/>
  <path fill="#763d16" stroke="#763d16" d="m58 1 148.7 137.6-91.5-48.1z"/>
  <path fill="#e4761b" stroke="#e4761b" d="m1.9 321.1 125.4-5.2 29.6 63.7z"/>
  <path fill="#cd6116" stroke="#cd6116" d="m156.9 379.6-29.6-63.7 61.6-3z"/>
  <path fill="#f6851b" stroke="#f6851b" d="m294 281.8 32.1 19.6 17.7 41.7zm-155.2-46.6L1.9 321.1l42.6-101.9zm-11.5 80.7L1.9 321.1l136.9-85.9zm155.4-80.1 8.2 29.8-39.6 2.3zm-31.4 32.1L239 237.3l43.7-1.5z"/>
  <path fill="#c0ad9e" stroke="#c0ad9e" d="m190.6 392.8-33.7-13.2 117.2 19.7z"/>
  <path fill="#763d16" stroke="#763d16" d="m44.5 219.2-19.2-24.6 7.3-7.1z"/>
  <path fill="#d7c1b3" stroke="#d7c1b3" d="m287.4 384.7-13.3 14.6-117.2-19.7z"/>
  <path fill="#e4761b" stroke="#e4761b" d="m293.7 348.9-136.8 30.7 32-66.7z"/>
  <path fill="#d7c1b3" stroke="#d7c1b3" d="m156.9 379.6 136.8-30.7-6.3 35.8z"/>
  <path fill="#763d16" stroke="#763d16" d="m23 145.7-4.5-76.9 96.7 21.7zm9.6 41.8L19.3 174l9-9.2z"/>
  <path fill="#cd6116" stroke="#cd6116" d="m216.6 257.1 22.4-19.8-3.2 48.4z"/>
  <path fill="#cd6116" stroke="#cd6116" d="m239 237.3-22.4 19.8L184 274z"/>
  <path fill="#f6851b" stroke="#f6851b" d="m343.8 343.1-6.1-4.5-43.7-56.8z"/>
  <path fill="#cd6116" stroke="#cd6116" d="m184 274-45.2-38.8 100.2 2.1z"/>
  <path fill="#e4751f" stroke="#e4751f" d="m235.8 285.7 3.2-48.4 12.3 30.6z"/>
  <path fill="#763d16" stroke="#763d16" d="m14.9 153.3 8.1-7.6 5.3 19.1z"/>
  <path fill="#233447" stroke="#233447" d="M235.8 285.7 184 274l32.6-16.9z"/>
  <path fill="#763d16" stroke="#763d16" d="M115.2 90.5 18.5 68.8 58 1z"/>
  <path fill="#c0ad9e" stroke="#c0ad9e" d="m274.1 399.3 5.5 15-89-21.5z"/>
  <path fill="#f6851b" stroke="#f6851b" d="M188.9 312.9 184 274l51.8 11.7z"/>
  <path fill="#e4751f" stroke="#e4751f" d="M138.8 235.2 184 274l4.9 38.9z"/>
  <path fill="#f6851b" stroke="#f6851b" d="m251.3 267.9 39.6-2.3 46.8 73zm-112.5-32.7 50.1 77.7-61.6 3z"/>
  <path fill="#e4751f" stroke="#e4751f" d="m251.3 267.9 49.2 74.9-64.7-57.1z"/>
  <path fill="#f6851b" stroke="#f6851b" d="m235.8 285.7 64.7 57.1-6.8 6.1z"/>
  <path fill="#f6851b" stroke="#f6851b" d="m293.7 348.9-104.8-36 46.9-27.2zm44-10.3-37.2 4.2-49.2-74.9z"/>
  <path fill="#c0ad9e" stroke="#c0ad9e" d="m347.5 373.8-16 32.1-51.9 8.4zm-67.9 40.5-5.5-15 13.3-14.6z"/>
  <path fill="#c0ad9e" stroke="#c0ad9e" d="m287.4 384.7 9.8-3.9-17.6 33.5zm-7.8 29.6 17.6-33.5 50.3-7z"/>
  <g fill="#161616" stroke="#161616">
    <path d="m337.7 338.6 12.3 7.5-37.4 4.5z"/>
    <path d="m312.6 350.6-12.1-7.8 37.2-4.2zm-4.3 5.9 45.5-5.5-6.3 22.8z"/>
    <path d="m347.5 373.8-50.3 7 11.1-24.3zm-50.3 7-9.8 3.9 6.3-35.8zm-3.5-31.9 6.8-6.1 12.1 7.8zm56.3-2.8 3.8 4.9-45.5 5.5z"/>
    <path d="m308.3 356.5 4.3-5.9 37.4-4.5zm-14.6-7.6 14.6 7.6-11.1 24.3z"/>
    <path d="m312.6 350.6-4.3 5.9-14.6-7.6z"/>
  </g>
</svg>
